src/catppuccin-frappe-light-cursors/progress-05.svg

<?xml version="1.0" encoding="UTF-8" standalone="no"?>
<svg
   id="svg5327"
   width="32"
   height="32"
   version="1.1"
   sodipodi:docname="progress-05.svg"
   inkscape:version="1.1.2 (0a00cf5339, 2022-02-04)"
   xmlns:inkscape="http://www.inkscape.org/namespaces/inkscape"
   xmlns:sodipodi="http://sodipodi.sourceforge.net/DTD/sodipodi-0.dtd"
   xmlns:xlink="http://www.w3.org/1999/xlink"
   xmlns="http://www.w3.org/2000/svg"
   xmlns:svg="http://www.w3.org/2000/svg">
  <sodipodi:namedview
     id="namedview27891"
     pagecolor="#ffffff"
     bordercolor="#666666"
     borderopacity="1.0"
     inkscape:pageshadow="2"
     inkscape:pageopacity="0.0"
     inkscape:pagecheckerboard="0"
     showgrid="false"
     inkscape:zoom="25.96875"
     inkscape:cx="16.019254"
     inkscape:cy="16.019254"
     inkscape:window-width="1896"
     inkscape:window-height="1020"
     inkscape:window-x="9"
     inkscape:window-y="45"
     inkscape:window-maximized="1"
     inkscape:current-layer="svg5327" />
  <defs
     id="defs5329">
    <filter
       id="filter901"
       style="color-interpolation-filters:sRGB"
       width="1.143"
       height="1.104"
       x="-.07"
       y="-.05">
      <feGaussianBlur
         id="feGaussianBlur903"
         stdDeviation=".475" />
    </filter>
    <filter
       id="filter881"
       style="color-interpolation-filters:sRGB"
       width="1.12"
       height="1.12"
       x="-.06"
       y="-.06">
      <feGaussianBlur
         id="feGaussianBlur883"
         stdDeviation=".375" />
    </filter>
    <linearGradient
       id="linearGradient832"
       x1="21"
       x2="25"
       y1="16"
       y2="28"
       gradientUnits="userSpaceOnUse"
       xlink:href="#linearGradient830" />
    <linearGradient
       id="linearGradient830">
      <stop
         id="stop826"
         style="stop-color:#ffffff;stop-opacity:1"
         offset="0" />
      <stop
         id="stop828"
         style="stop-color:#ffffff;stop-opacity:0"
         offset="1" />
    </linearGradient>
    <filter
       id="filter869"
       style="color-interpolation-filters:sRGB"
       width="1.128"
       height="1.113"
       x="-.06"
       y="-.06">
      <feGaussianBlur
         id="feGaussianBlur871"
         stdDeviation=".212" />
    </filter>
    <filter
       id="filter832"
       style="color-interpolation-filters:sRGB"
       width="1.171"
       height="1.124"
       x="-.09"
       y="-.06">
      <feGaussianBlur
         id="feGaussianBlur834"
         stdDeviation=".57" />
    </filter>
    <filter
       id="filter840"
       style="color-interpolation-filters:sRGB"
       width="1.1537011"
       height="1.1353641"
       x="-0.076850561"
       y="-0.067682055">
      <feGaussianBlur
         id="feGaussianBlur842"
         stdDeviation=".254" />
    </filter>
    <filter
       id="filter844"
       style="color-interpolation-filters:sRGB"
       width="1.144"
       height="1.144"
       x="-0.071999998"
       y="-0.071999998">
      <feGaussianBlur
         id="feGaussianBlur846"
         stdDeviation=".45" />
    </filter>
    <filter
       id="filter914"
       style="color-interpolation-filters:sRGB"
       width="1.171"
       height="1.1243636"
       x="-0.085499998"
       y="-0.062181813">
      <feGaussianBlur
         id="feGaussianBlur916"
         stdDeviation=".57" />
    </filter>
  </defs>
  <path
     id="path855"
     style="opacity:0.2;fill:#000000;fill-opacity:1;stroke:none;stroke-width:2.72727251;stroke-linecap:round;stroke-linejoin:round;stroke-miterlimit:4;stroke-dasharray:none;stroke-opacity:1;filter:url(#filter844)"
     d="M 30.5,23 A 7.5,7.5 0 0 1 23,30.5 7.5,7.5 0 0 1 15.5,23 7.5,7.5 0 0 1 23,15.5 7.5,7.5 0 0 1 30.5,23 Z" />
  <path
     id="path840-3"
     style="opacity:1;fill:#1e1e28;fill-opacity:1;stroke:none;stroke-width:2.72727251;stroke-linecap:round;stroke-linejoin:round;stroke-miterlimit:4;stroke-dasharray:none;stroke-opacity:1"
     d="m 29.999999,22.5 a 7.5,7.5 0 0 1 -7.5,7.5 7.5,7.5 0 0 1 -7.5,-7.5 7.5,7.5 0 0 1 7.5,-7.5 7.5,7.5 0 0 1 7.5,7.5 z" />
  <path
     id="path839"
     style="opacity:1;fill:#C6D0F5;fill-opacity:1;stroke:none;stroke-width:2.36363626;stroke-linecap:round;stroke-linejoin:round;stroke-miterlimit:4;stroke-dasharray:none;stroke-opacity:1"
     d="m 28.999999,22.5 a 6.5,6.5 0 0 1 -6.5,6.5 6.5,6.5 0 0 1 -6.5,-6.5 6.5,6.5 0 0 1 6.5,-6.5 6.5,6.5 0 0 1 6.5,6.5 z" />
  <path
     id="path824"
     style="opacity:0.2;fill:#C6D0F5;fill-opacity:1;stroke:none;stroke-width:2.36364;stroke-linecap:round;stroke-linejoin:round;stroke-miterlimit:4;stroke-dasharray:none;stroke-opacity:1"
     d="m 28.999999,22.5 a 6.5,6.5 0 0 1 -6.5,6.5 6.5,6.5 0 0 1 -6.5,-6.5 6.5,6.5 0 0 1 6.5,-6.5 6.5,6.5 0 0 1 6.5,6.5 z" />
  <path
     id="path843"
     style="color:#000000;font-style:normal;font-variant:normal;font-weight:normal;font-stretch:normal;font-size:medium;line-height:normal;font-family:sans-serif;font-variant-ligatures:normal;font-variant-position:normal;font-variant-caps:normal;font-variant-numeric:normal;font-variant-alternates:normal;font-feature-settings:normal;text-indent:0;text-align:start;text-decoration:none;text-decoration-line:none;text-decoration-style:solid;text-decoration-color:#000000;letter-spacing:normal;word-spacing:normal;text-transform:none;writing-mode:lr-tb;direction:ltr;text-orientation:mixed;dominant-baseline:auto;baseline-shift:baseline;text-anchor:start;white-space:normal;shape-padding:0;clip-rule:nonzero;display:inline;overflow:visible;visibility:visible;opacity:0.2;isolation:auto;mix-blend-mode:normal;color-interpolation:sRGB;color-interpolation-filters:linearRGB;solid-color:#000000;solid-opacity:1;vector-effect:none;fill:#000000;fill-opacity:1;fill-rule:nonzero;stroke:none;stroke-width:0.99716103;stroke-linecap:round;stroke-linejoin:round;stroke-miterlimit:4;stroke-dasharray:none;stroke-dashoffset:0;stroke-opacity:1;color-rendering:auto;image-rendering:auto;shape-rendering:auto;text-rendering:auto;enable-background:accumulate;filter:url(#filter840)"
     d="m 23.297019,18.505603 c -0.879944,-0.05711 -1.763461,0.145957 -2.539063,0.59375 a 0.49800051,0.49926107 60 0 0 -0.1875,0.691407 0.49800051,0.49926107 60 0 0 0.683594,0.169922 c 0.804625,-0.464552 1.760058,-0.588253 2.65625,-0.347657 0.896191,0.240595 1.658575,0.826649 2.119141,1.63086 a 0.4982692,0.49953044 60 1 0 0.867187,-0.496094 c -0.59191,-1.033616 -1.572792,-1.788434 -2.724609,-2.097656 -0.287954,-0.0773 -0.581685,-0.125494 -0.875,-0.144532 z m -0.460937,1.996094 c -0.163131,0.01049 -0.326198,0.03712 -0.486329,0.08008 -0.640598,0.171886 -1.185284,0.592227 -1.513671,1.167969 a 0.49819807,0.49764709 30 1 0 0.865234,0.494141 c 0.197178,-0.345724 0.523585,-0.599937 0.908203,-0.703125 0.384616,-0.10319 0.794309,-0.04808 1.138672,0.152343 A 0.4977376,0.49718713 30 1 0 24.246238,20.83373 C 23.81609,20.58339 23.325472,20.470227 22.836082,20.501697 Z m 1.890624,3.003906 a 0.49805645,0.49750563 30 0 0 -0.427734,0.251953 c -0.197177,0.345725 -0.523587,0.599936 -0.908203,0.703126 -0.384618,0.103189 -0.794311,0.04808 -1.138672,-0.152344 a 0.4977376,0.49718713 30 0 0 -0.689453,0.183594 0.4977376,0.49718713 30 0 0 0.191406,0.675781 c 0.57349,0.333761 1.255962,0.4238 1.896485,0.251953 0.640598,-0.171887 1.18723,-0.594186 1.515625,-1.169922 a 0.49805645,0.49750563 30 0 0 -0.439454,-0.744141 z m -5.205078,0.986329 a 0.49800051,0.49926107 60 0 0 -0.417968,0.759765 c 0.591909,1.033616 1.572793,1.788434 2.724609,2.097656 1.151815,0.309218 2.381882,0.14784 3.416016,-0.449218 a 0.49800051,0.49926107 60 0 0 0.185547,-0.691407 0.49800051,0.49926107 60 0 0 -0.683594,-0.169922 c -0.804624,0.464552 -1.760057,0.588253 -2.65625,0.347657 -0.896191,-0.240595 -1.658574,-0.826648 -2.119141,-1.63086 a 0.49800051,0.49926107 60 0 0 -0.449219,-0.263671 z" />
  <path
     id="path826"
     style="color:#000000;font-style:normal;font-variant:normal;font-weight:normal;font-stretch:normal;font-size:medium;line-height:normal;font-family:sans-serif;font-variant-ligatures:normal;font-variant-position:normal;font-variant-caps:normal;font-variant-numeric:normal;font-variant-alternates:normal;font-feature-settings:normal;text-indent:0;text-align:start;text-decoration:none;text-decoration-line:none;text-decoration-style:solid;text-decoration-color:#000000;letter-spacing:normal;word-spacing:normal;text-transform:none;writing-mode:lr-tb;direction:ltr;text-orientation:mixed;dominant-baseline:auto;baseline-shift:baseline;text-anchor:start;white-space:normal;shape-padding:0;clip-rule:nonzero;display:inline;overflow:visible;visibility:visible;opacity:1;isolation:auto;mix-blend-mode:normal;color-interpolation:sRGB;color-interpolation-filters:linearRGB;solid-color:#000000;solid-opacity:1;vector-effect:none;fill:#1e1e28;fill-opacity:1;fill-rule:nonzero;stroke:none;stroke-width:0.99716103;stroke-linecap:round;stroke-linejoin:round;stroke-miterlimit:4;stroke-dasharray:none;stroke-dashoffset:0;stroke-opacity:1;color-rendering:auto;image-rendering:auto;shape-rendering:auto;text-rendering:auto;enable-background:accumulate"
     d="M 22.796875 18.005859 C 21.916931 17.948746 21.033414 18.151816 20.257812 18.599609 A 0.49800051 0.49926107 60 0 0 20.070312 19.291016 A 0.49800051 0.49926107 60 0 0 20.753906 19.460938 C 21.558531 18.996386 22.513964 18.872685 23.410156 19.113281 C 24.306347 19.353876 25.068731 19.93993 25.529297 20.744141 A 0.49800051 0.49926107 60 1 0 26.396484 20.248047 C 25.804574 19.214431 24.823692 18.459613 23.671875 18.150391 C 23.383921 18.073086 23.09019 18.024897 22.796875 18.005859 z M 22.335938 20.001953 C 22.172807 20.012443 22.00974 20.039069 21.849609 20.082031 C 21.209011 20.253917 20.664325 20.674258 20.335938 21.25 A 0.49805588 0.49750506 30 1 0 21.201172 21.744141 C 21.39835 21.398417 21.724757 21.144204 22.109375 21.041016 C 22.493991 20.937826 22.903684 20.992935 23.248047 21.193359 A 0.4977376 0.49718713 30 1 0 23.746094 20.333984 C 23.315946 20.083646 22.825328 19.970483 22.335938 20.001953 z M 24.226562 23.005859 A 0.49805645 0.49750563 30 0 0 23.798828 23.257812 C 23.601651 23.603537 23.275241 23.857748 22.890625 23.960938 C 22.506007 24.064127 22.096314 24.009018 21.751953 23.808594 A 0.4977376 0.49718713 30 0 0 21.0625 23.992188 A 0.4977376 0.49718713 30 0 0 21.253906 24.667969 C 21.827396 25.00173 22.509868 25.091769 23.150391 24.919922 C 23.790989 24.748035 24.337621 24.325736 24.666016 23.75 A 0.49805645 0.49750563 30 0 0 24.226562 23.005859 z M 19.021484 23.992188 A 0.49800051 0.49926107 60 0 0 18.603516 24.751953 C 19.195425 25.785569 20.176309 26.540387 21.328125 26.849609 C 22.47994 27.158827 23.710007 26.997449 24.744141 26.400391 A 0.49800051 0.49926107 60 0 0 24.929688 25.708984 A 0.49800051 0.49926107 60 0 0 24.246094 25.539062 C 23.44147 26.003614 22.486037 26.127315 21.589844 25.886719 C 20.693653 25.646124 19.93127 25.060071 19.470703 24.255859 A 0.49800051 0.49926107 60 0 0 19.021484 23.992188 z" />
  <path
     id="path887"
     style="color:#000000;font-style:normal;font-variant:normal;font-weight:normal;font-stretch:normal;font-size:medium;line-height:normal;font-family:sans-serif;font-variant-ligatures:normal;font-variant-position:normal;font-variant-caps:normal;font-variant-numeric:normal;font-variant-alternates:normal;font-feature-settings:normal;text-indent:0;text-align:start;text-decoration:none;text-decoration-line:none;text-decoration-style:solid;text-decoration-color:#000000;letter-spacing:normal;word-spacing:normal;text-transform:none;writing-mode:lr-tb;direction:ltr;text-orientation:mixed;dominant-baseline:auto;baseline-shift:baseline;text-anchor:start;white-space:normal;shape-padding:0;clip-rule:nonzero;display:inline;overflow:visible;visibility:visible;opacity:0.2;isolation:auto;mix-blend-mode:normal;color-interpolation:sRGB;color-interpolation-filters:linearRGB;solid-color:#000000;solid-opacity:1;vector-effect:none;fill:#000000;fill-opacity:1;fill-rule:nonzero;stroke:none;stroke-width:1.99915862;stroke-linecap:round;stroke-linejoin:round;stroke-miterlimit:4;stroke-dasharray:none;stroke-dashoffset:0;stroke-opacity:1;filter:url(#filter914);color-rendering:auto;image-rendering:auto;shape-rendering:auto;text-rendering:auto;enable-background:accumulate"
     d="M 2.4621529,1.5013617 C 1.9309785,1.5284396 1.5140652,1.9671028 1.5136622,2.4993344 L 1.5000008,22.497849 c -0.00133,1.135729 1.5899877,1.394218 1.9477239,0.316383 0.9111453,-2.735331 3.0350839,-5.175772 5.1132629,-6.284689 1.2756664,-0.649071 2.6350314,-1.020439 3.9324044,-1.030149 1.281347,-0.0096 2.502207,0.335057 3.524763,0.881722 1.033732,0.555669 2.012905,-0.817786 1.15146,-1.615114 L 3.1940131,1.7669669 C 2.9959677,1.5830739 2.7319551,1.487259 2.4621529,1.5013617 Z" />
  <path
     id="path848"
     style="color:#000000;font-style:normal;font-variant:normal;font-weight:normal;font-stretch:normal;font-size:medium;line-height:normal;font-family:sans-serif;font-variant-ligatures:normal;font-variant-position:normal;font-variant-caps:normal;font-variant-numeric:normal;font-variant-alternates:normal;font-feature-settings:normal;text-indent:0;text-align:start;text-decoration:none;text-decoration-line:none;text-decoration-style:solid;text-decoration-color:#000000;letter-spacing:normal;word-spacing:normal;text-transform:none;writing-mode:lr-tb;direction:ltr;text-orientation:mixed;dominant-baseline:auto;baseline-shift:baseline;text-anchor:start;white-space:normal;shape-padding:0;clip-rule:nonzero;display:inline;overflow:visible;visibility:visible;opacity:1;isolation:auto;mix-blend-mode:normal;color-interpolation:sRGB;color-interpolation-filters:linearRGB;solid-color:#000000;solid-opacity:1;vector-effect:none;fill:#1e1e28;fill-opacity:1;fill-rule:nonzero;stroke:none;stroke-width:1.99915862;stroke-linecap:round;stroke-linejoin:round;stroke-miterlimit:4;stroke-dasharray:none;stroke-dashoffset:0;stroke-opacity:1;color-rendering:auto;image-rendering:auto;shape-rendering:auto;text-rendering:auto;enable-background:accumulate"
     d="M 1.9621521,1.0013629 C 1.4309777,1.0284408 1.0140644,1.467104 1.0136614,1.9993356 L 1,21.997849 c -0.00133,1.135729 1.5899877,1.394218 1.9477239,0.316383 0.9111453,-2.735331 3.0350839,-5.175772 5.1132629,-6.284689 1.2756664,-0.649071 2.6350312,-1.020439 3.9324042,-1.030149 1.281347,-0.0096 2.502207,0.335057 3.524763,0.881722 1.033732,0.555669 2.012905,-0.817786 1.15146,-1.615114 L 2.6940123,1.2669681 C 2.4959669,1.0830751 2.2319543,0.9872602 1.9621521,1.0013629 Z" />
  <path
     id="path823"
     style="opacity:1;fill:#C6D0F5;fill-opacity:1;stroke:none;stroke-width:1.67926061;stroke-linecap:round;stroke-linejoin:round;stroke-miterlimit:4;stroke-dasharray:none;stroke-opacity:1"
     d="M 2.01406,2 2,22 C 3,19 5.2466416,16.39612 7.6028347,15.142847 9.022616,14.418876 10.539543,14.009906 12,14 c 1.435898,-0.0097 2.817191,0.3681 4,1 z" />
</svg>

<svg xmlns="http://www.w3.org/2000/svg" width="32" height="32">
    <defs>
        <filter id="b" width="1.154" height="1.135" x="-.077" y="-.068" style="color-interpolation-filters:sRGB">
            <feGaussianBlur stdDeviation=".254"/>
        </filter>
        <filter id="a" width="1.144" height="1.144" x="-.072" y="-.072" style="color-interpolation-filters:sRGB">
            <feGaussianBlur stdDeviation=".45"/>
        </filter>
        <filter id="d" width="1.171" height="1.124" x="-.085" y="-.062" style="color-interpolation-filters:sRGB">
            <feGaussianBlur stdDeviation=".57"/>
        </filter>
    </defs>
    <path d="M30.5 23a7.5 7.5 0 0 1-7.5 7.5 7.5 7.5 0 0 1-7.5-7.5 7.5 7.5 0 0 1 7.5-7.5 7.5 7.5 0 0 1 7.5 7.5" style="opacity:.2;fill:#000;fill-opacity:1;stroke:none;stroke-width:2.72727251;stroke-linecap:round;stroke-linejoin:round;stroke-miterlimit:4;stroke-dasharray:none;stroke-opacity:1;filter:url(#a)"/>
    <path d="M30 22.5a7.5 7.5 0 0 1-7.5 7.5 7.5 7.5 0 0 1-7.5-7.5 7.5 7.5 0 0 1 7.5-7.5 7.5 7.5 0 0 1 7.5 7.5" style="opacity:1;fill:#1e1e28;fill-opacity:1;stroke:none;stroke-width:2.72727251;stroke-linecap:round;stroke-linejoin:round;stroke-miterlimit:4;stroke-dasharray:none;stroke-opacity:1"/>
    <path d="M29 22.5a6.5 6.5 0 0 1-6.5 6.5 6.5 6.5 0 0 1-6.5-6.5 6.5 6.5 0 0 1 6.5-6.5 6.5 6.5 0 0 1 6.5 6.5" style="opacity:1;fill:#c6d0f5;fill-opacity:1;stroke:none;stroke-width:2.36363626;stroke-linecap:round;stroke-linejoin:round;stroke-miterlimit:4;stroke-dasharray:none;stroke-opacity:1"/>
    <path d="M29 22.5a6.5 6.5 0 0 1-6.5 6.5 6.5 6.5 0 0 1-6.5-6.5 6.5 6.5 0 0 1 6.5-6.5 6.5 6.5 0 0 1 6.5 6.5" style="opacity:.2;fill:#c6d0f5;fill-opacity:1;stroke:none;stroke-width:2.36364;stroke-linecap:round;stroke-linejoin:round;stroke-miterlimit:4;stroke-dasharray:none;stroke-opacity:1"/>
    <path d="M23.297 18.506a4.5 4.5 0 0 0-2.539.593.498.5 60 0 0-.188.692.498.5 60 0 0 .684.17 3.5 3.5 0 0 1 4.775 1.283.498.5 60 1 0 .868-.496 4.48 4.48 0 0 0-3.6-2.242m-.46 1.996q-.246.015-.487.08a2.48 2.48 0 0 0-1.514 1.168.498.498 30 1 0 .865.494 1.49 1.49 0 0 1 2.047-.55.498.497 30 1 0 .498-.86 2.5 2.5 0 0 0-1.41-.332m1.89 3.004a.5.5 30 0 0-.428.252 1.49 1.49 0 0 1-2.047.55.498.497 30 0 0-.69.184.498.497 30 0 0 .192.676 2.49 2.49 0 0 0 3.412-.918.498.498 30 0 0-.44-.744m-5.205.986a.498.5 60 0 0-.418.76 4.48 4.48 0 0 0 2.724 2.097 4.5 4.5 0 0 0 3.416-.449.498.5 60 0 0 .186-.691.498.5 60 0 0-.684-.17 3.5 3.5 0 0 1-4.775-1.283.498.5 60 0 0-.45-.264" style="color:#000;font-style:normal;font-variant:normal;font-weight:400;font-stretch:normal;font-size:medium;line-height:normal;font-family:sans-serif;font-variant-ligatures:normal;font-variant-position:normal;font-variant-caps:normal;font-variant-numeric:normal;font-variant-alternates:normal;font-feature-settings:normal;text-indent:0;text-align:start;text-decoration:none;text-decoration-line:none;text-decoration-style:solid;text-decoration-color:#000;letter-spacing:normal;word-spacing:normal;text-transform:none;writing-mode:lr-tb;direction:ltr;text-orientation:mixed;dominant-baseline:auto;baseline-shift:baseline;text-anchor:start;white-space:normal;shape-padding:0;clip-rule:nonzero;display:inline;overflow:visible;visibility:visible;opacity:.2;isolation:auto;mix-blend-mode:normal;color-interpolation:sRGB;color-interpolation-filters:linearRGB;solid-color:#000;solid-opacity:1;vector-effect:none;fill:#000;fill-opacity:1;fill-rule:nonzero;stroke:none;stroke-width:.99716103;stroke-linecap:round;stroke-linejoin:round;stroke-miterlimit:4;stroke-dasharray:none;stroke-dashoffset:0;stroke-opacity:1;color-rendering:auto;image-rendering:auto;shape-rendering:auto;text-rendering:auto;enable-background:accumulate;filter:url(#b)"/>
    <path d="M22.797 18.006a4.5 4.5 0 0 0-2.54.594.498.5 60 0 0-.187.691.498.5 60 0 0 .684.17 3.5 3.5 0 0 1 4.775 1.283.498.5 60 1 0 .867-.496 4.48 4.48 0 0 0-3.6-2.242m-.461 1.996q-.245.015-.486.08a2.48 2.48 0 0 0-1.514 1.168.498.498 30 1 0 .865.494 1.49 1.49 0 0 1 2.047-.55.498.497 30 1 0 .498-.86 2.5 2.5 0 0 0-1.41-.332m1.89 3.004a.5.5 30 0 0-.427.252 1.49 1.49 0 0 1-2.047.55.498.497 30 0 0-.69.184.498.497 30 0 0 .192.676 2.49 2.49 0 0 0 3.412-.918.498.498 30 0 0-.44-.744m-5.205.986a.498.5 60 0 0-.417.76 4.48 4.48 0 0 0 2.724 2.098 4.5 4.5 0 0 0 3.416-.45.498.5 60 0 0 .186-.691.498.5 60 0 0-.684-.17 3.5 3.5 0 0 1-4.775-1.283.498.5 60 0 0-.45-.264" style="color:#000;font-style:normal;font-variant:normal;font-weight:400;font-stretch:normal;font-size:medium;line-height:normal;font-family:sans-serif;font-variant-ligatures:normal;font-variant-position:normal;font-variant-caps:normal;font-variant-numeric:normal;font-variant-alternates:normal;font-feature-settings:normal;text-indent:0;text-align:start;text-decoration:none;text-decoration-line:none;text-decoration-style:solid;text-decoration-color:#000;letter-spacing:normal;word-spacing:normal;text-transform:none;writing-mode:lr-tb;direction:ltr;text-orientation:mixed;dominant-baseline:auto;baseline-shift:baseline;text-anchor:start;white-space:normal;shape-padding:0;clip-rule:nonzero;display:inline;overflow:visible;visibility:visible;opacity:1;isolation:auto;mix-blend-mode:normal;color-interpolation:sRGB;color-interpolation-filters:linearRGB;solid-color:#000;solid-opacity:1;vector-effect:none;fill:#1e1e28;fill-opacity:1;fill-rule:nonzero;stroke:none;stroke-width:.99716103;stroke-linecap:round;stroke-linejoin:round;stroke-miterlimit:4;stroke-dasharray:none;stroke-dashoffset:0;stroke-opacity:1;color-rendering:auto;image-rendering:auto;shape-rendering:auto;text-rendering:auto;enable-background:accumulate"/>
    <path d="M2.462 1.501a1 1 0 0 0-.948.998L1.5 22.498c-.001 1.136 1.59 1.394 1.948.316.91-2.735 3.035-5.176 5.113-6.284 1.276-.65 2.635-1.02 3.932-1.03a7.4 7.4 0 0 1 3.525.881c1.034.556 2.013-.818 1.152-1.615L3.194 1.767a1 1 0 0 0-.732-.266" style="color:#000;font-style:normal;font-variant:normal;font-weight:400;font-stretch:normal;font-size:medium;line-height:normal;font-family:sans-serif;font-variant-ligatures:normal;font-variant-position:normal;font-variant-caps:normal;font-variant-numeric:normal;font-variant-alternates:normal;font-feature-settings:normal;text-indent:0;text-align:start;text-decoration:none;text-decoration-line:none;text-decoration-style:solid;text-decoration-color:#000;letter-spacing:normal;word-spacing:normal;text-transform:none;writing-mode:lr-tb;direction:ltr;text-orientation:mixed;dominant-baseline:auto;baseline-shift:baseline;text-anchor:start;white-space:normal;shape-padding:0;clip-rule:nonzero;display:inline;overflow:visible;visibility:visible;opacity:.2;isolation:auto;mix-blend-mode:normal;color-interpolation:sRGB;color-interpolation-filters:linearRGB;solid-color:#000;solid-opacity:1;vector-effect:none;fill:#000;fill-opacity:1;fill-rule:nonzero;stroke:none;stroke-width:1.99915862;stroke-linecap:round;stroke-linejoin:round;stroke-miterlimit:4;stroke-dasharray:none;stroke-dashoffset:0;stroke-opacity:1;filter:url(#d);color-rendering:auto;image-rendering:auto;shape-rendering:auto;text-rendering:auto;enable-background:accumulate"/>
    <path d="M1.962 1.001A1 1 0 0 0 1.014 2L1 21.998c-.001 1.136 1.59 1.394 1.948.316.91-2.735 3.035-5.176 5.113-6.284 1.276-.65 2.635-1.02 3.932-1.03a7.4 7.4 0 0 1 3.525.881c1.034.556 2.013-.818 1.152-1.615L2.694 1.267a1 1 0 0 0-.732-.266" style="color:#000;font-style:normal;font-variant:normal;font-weight:400;font-stretch:normal;font-size:medium;line-height:normal;font-family:sans-serif;font-variant-ligatures:normal;font-variant-position:normal;font-variant-caps:normal;font-variant-numeric:normal;font-variant-alternates:normal;font-feature-settings:normal;text-indent:0;text-align:start;text-decoration:none;text-decoration-line:none;text-decoration-style:solid;text-decoration-color:#000;letter-spacing:normal;word-spacing:normal;text-transform:none;writing-mode:lr-tb;direction:ltr;text-orientation:mixed;dominant-baseline:auto;baseline-shift:baseline;text-anchor:start;white-space:normal;shape-padding:0;clip-rule:nonzero;display:inline;overflow:visible;visibility:visible;opacity:1;isolation:auto;mix-blend-mode:normal;color-interpolation:sRGB;color-interpolation-filters:linearRGB;solid-color:#000;solid-opacity:1;vector-effect:none;fill:#1e1e28;fill-opacity:1;fill-rule:nonzero;stroke:none;stroke-width:1.99915862;stroke-linecap:round;stroke-linejoin:round;stroke-miterlimit:4;stroke-dasharray:none;stroke-dashoffset:0;stroke-opacity:1;color-rendering:auto;image-rendering:auto;shape-rendering:auto;text-rendering:auto;enable-background:accumulate"/>
    <path d="M2.014 2 2 22c1-3 3.247-5.604 5.603-6.857C9.023 14.419 10.54 14.01 12 14a8.4 8.4 0 0 1 4 1z" style="opacity:1;fill:#c6d0f5;fill-opacity:1;stroke:none;stroke-width:1.67926061;stroke-linecap:round;stroke-linejoin:round;stroke-miterlimit:4;stroke-dasharray:none;stroke-opacity:1"/>
</svg>
